static/images/onboarding/create-a-project.svg

<svg width="172" height="119" viewBox="0 0 172 119" fill="none" xmlns="http://www.w3.org/2000/svg">
<g opacity="0.3">
<rect width="172" height="119" rx="8" fill="#FFBF00"/>
</g>
<path d="M74 37.8864C54 5.97841 16.3333 10.1568 0 16.2345V62.3872C5.5 59.9181 23.9 62.5011 53.5 92.5858C83.1 122.67 144.833 111.199 172 101.702V49.8519C147.667 59.1584 94 69.7944 74 37.8864Z" fill="white" fill-opacity="0.5"/>
<rect x="47.5" y="12.5" width="85" height="73" stroke="#4C97FF"/>
<path d="M139.278 34.1939C137.342 37.2255 135.688 39.0949 134.157 40.0244C133.835 40.2198 133.416 40.114 133.225 39.7894C132.538 38.6198 131.6 37.6381 130.464 36.9126C129.288 36.1871 127.996 35.744 126.619 35.5785C126.246 35.5337 125.981 35.1924 126.031 34.8197C126.269 33.0262 127.274 30.7408 129.172 27.7699C134.69 19.0766 143.467 10.3101 146.27 12.1006C149.068 13.8879 144.828 25.5051 139.278 34.1939Z" fill="#825331"/>
<path d="M127.281 50.2295C127.213 50.275 127.136 50.3089 127.051 50.3275L126.755 50.3923C122.784 51.4192 118.95 50.2508 116.166 47.7781C115.062 46.7981 114.255 45.6959 113.962 44.7815C113.574 43.5701 114.165 42.6164 115.46 42.7681C117.499 43.001 118.851 42.5751 119.698 41.7948C119.94 41.5713 119.961 41.5429 120.175 41.202C122.067 38.3948 125.916 37.546 128.818 39.2998C131.739 41.0957 132.577 44.8908 130.672 47.7187C129.867 48.9318 128.664 49.8048 127.281 50.2295Z" fill="#E4B681"/>
<mask id="mask0_1163_4842" style="mask-type:alpha" maskUnits="userSpaceOnUse" x="113" y="38" width="19" height="13">
<path d="M127.281 50.2295C127.213 50.275 127.136 50.3089 127.051 50.3275L126.755 50.3923C122.784 51.4192 118.95 50.2508 116.166 47.7781C115.062 46.7981 114.255 45.6959 113.962 44.7815C113.574 43.5701 114.165 42.6164 115.46 42.7681C117.499 43.001 118.851 42.5751 119.698 41.7948C119.94 41.5713 119.961 41.5429 120.175 41.202C122.067 38.3948 125.916 37.546 128.818 39.2998C131.739 41.0957 132.577 44.8908 130.672 47.7187C129.867 48.9318 128.664 49.8048 127.281 50.2295Z" fill="#E4B681"/>
</mask>
<g mask="url(#mask0_1163_4842)">
<path d="M124 41.5004C124.4 39.1004 121.167 39.5004 119.5 40.0004C116.667 40.3337 110.8 42.1004 110 46.5004C109 52.0004 125 52.5004 128.5 51.5004C132 50.5004 129.5 47.0004 126.5 47.0004C123.5 47.0004 123.5 44.5004 124 41.5004Z" fill="#5CB1D6"/>
</g>
<path d="M106.089 50.197C112.134 52.4182 95.736 59.3838 88.4487 58.2954C83.1608 57.5055 81.1057 53.9231 81.1066 51.5473C81.1077 48.5777 91.501 46.1866 92.0992 49.6465C92.6975 53.1065 100.044 47.9758 106.089 50.197Z" fill="#5CB1D6" stroke="#4C97FF"/>
<path d="M80.7283 38.7673C81.4717 38.7645 82.123 38.9639 82.5741 39.2623C83.0287 39.5629 83.2326 39.9249 83.2338 40.258C83.235 40.5911 83.0338 40.9546 82.5814 41.2586C82.1326 41.5603 81.4828 41.7645 80.7393 41.7672C79.9959 41.77 79.3446 41.5706 78.8935 41.2722C78.4389 40.9716 78.2351 40.6096 78.2338 40.2765C78.2326 39.9434 78.4338 39.5799 78.8862 39.2759C79.3351 38.9742 79.9848 38.77 80.7283 38.7673Z" fill="#5CB1D6" stroke="#4C97FF"/>
<path d="M83.967 65.5329C91.5494 67.2594 67.9002 81.0572 58.3823 81.2368C51.4758 81.3672 49.5684 76.758 50.133 73.378C50.8387 69.153 63.4606 73.0733 65.3305 68.0672C68.3054 60.1025 76.3847 63.8064 83.967 65.5329Z" fill="#5CB1D6" stroke="#4C97FF"/>
<rect x="45" y="10" width="5" height="5" rx="2.5" fill="#4C97FF"/>
<rect x="44.5" y="9.5" width="6" height="6" rx="3" stroke="black" stroke-opacity="0.1"/>
<rect x="130" y="10" width="5" height="5" rx="2.5" fill="#4C97FF"/>
<rect x="129.5" y="9.5" width="6" height="6" rx="3" stroke="black" stroke-opacity="0.1"/>
<rect x="130" y="83" width="5" height="5" rx="2.5" fill="#4C97FF"/>
<rect x="129.5" y="82.5" width="6" height="6" rx="3" stroke="black" stroke-opacity="0.1"/>
<path fill-rule="evenodd" clip-rule="evenodd" d="M99.1338 84.2469L92.4994 106.824C92.0427 108.378 90.4551 109.244 88.9009 108.788L59.0437 100.014C58.3075 99.7976 57.4752 99.9085 56.8402 100.255L51.7599 103.028C51.1249 103.374 50.2926 103.485 49.5563 103.269L34.9959 98.9901C34.2597 98.7737 33.6196 98.2302 33.273 97.5952L30.5004 92.5149C30.1539 91.8799 29.5138 91.3364 28.7776 91.12L21.4156 88.9566C19.8613 88.4999 18.9949 86.9123 19.4516 85.3581L26.086 62.7812C26.5428 61.227 28.1303 60.3606 29.6845 60.8173L36.9648 62.9566C37.701 63.173 38.341 63.7165 38.6876 64.3515L41.518 69.5376C41.9463 70.1967 42.5046 70.7162 43.2408 70.9325L57.8013 75.2112C58.5375 75.4276 59.3698 75.3167 60.0049 74.9701L65.1909 72.1398C65.9078 71.8172 66.6583 71.6823 67.3945 71.8987L97.1699 80.6484C98.7241 81.1051 99.5905 82.6927 99.1338 84.2469Z" fill="#CF63CF"/>
<path fill-rule="evenodd" clip-rule="evenodd" d="M97.6389 98.7656L94.5979 102.138C93.9891 102.817 92.8574 102.39 92.8574 101.48V86.1899C92.8574 85.3292 93.8913 84.8801 94.53 85.4638L105.819 95.7697C106.488 96.3791 106.053 97.4851 105.142 97.4851H100.556L102.371 101.53C102.733 102.337 102.379 103.289 101.579 103.657C100.779 104.022 99.8364 103.665 99.4749 102.856L97.6389 98.7656Z" fill="#575E75"/>
<path d="M97.6389 98.7656L97.9924 98.607L97.7491 98.0648L97.3511 98.5062L97.6389 98.7656ZM94.5979 102.138L94.3101 101.879L94.3094 101.88L94.5979 102.138ZM94.53 85.4638L94.2686 85.7498L94.2688 85.7499L94.53 85.4638ZM105.819 95.7697L105.558 96.0559L105.558 96.0561L105.819 95.7697ZM100.556 97.4851V97.0976H99.9577L100.203 97.6437L100.556 97.4851ZM102.371 101.53L102.725 101.372L102.725 101.372L102.371 101.53ZM101.579 103.657L101.74 104.009L101.741 104.009L101.579 103.657ZM99.4749 102.856L99.8286 102.698L99.8284 102.698L99.4749 102.856ZM97.3511 98.5062L94.3101 101.879L94.8857 102.398L97.9267 99.0251L97.3511 98.5062ZM94.3094 101.88C93.9341 102.298 93.2449 102.028 93.2449 101.48H92.4699C92.4699 102.751 94.0441 103.336 94.8863 102.397L94.3094 101.88ZM93.2449 101.48V86.1899H92.4699V101.48H93.2449ZM93.2449 86.1899C93.2449 85.6732 93.8734 85.3886 94.2686 85.7498L94.7914 85.1777C93.9093 84.3716 92.4699 84.9852 92.4699 86.1899H93.2449ZM94.2688 85.7499L105.558 96.0559L106.08 95.4835L94.7913 85.1776L94.2688 85.7499ZM105.558 96.0561C105.959 96.4215 105.707 97.0976 105.142 97.0976V97.8726C106.398 97.8726 107.017 96.3367 106.08 95.4833L105.558 96.0561ZM105.142 97.0976H100.556V97.8726H105.142V97.0976ZM100.203 97.6437L102.017 101.689L102.725 101.372L100.91 97.3265L100.203 97.6437ZM102.017 101.689C102.293 102.304 102.022 103.027 101.417 103.305L101.741 104.009C102.736 103.552 103.172 102.37 102.725 101.372L102.017 101.689ZM101.418 103.304C100.815 103.58 100.103 103.312 99.8286 102.698L99.1211 103.014C99.5698 104.018 100.743 104.465 101.74 104.009L101.418 103.304ZM99.8284 102.698L97.9924 98.607L97.2854 98.9243L99.1213 103.015L99.8284 102.698Z" fill="white"/>
</svg>

<svg width="172" height="119" fill="none" xmlns="http://www.w3.org/2000/svg"><rect width="172" height="119" rx="8" fill="#FFBF00" opacity=".3"/><path d="M74 37.886C54 5.978 16.333 10.156 0 16.234v46.153c5.5-2.469 23.9.114 53.5 30.199 29.6 30.084 91.333 18.613 118.5 9.116v-51.85c-24.333 9.306-78 19.942-98-11.966Z" fill="#fff" fill-opacity=".5"/><path stroke="#4C97FF" d="M47.5 12.5h85v73h-85z"/><path d="M139.278 34.194c-1.936 3.031-3.59 4.9-5.121 5.83a.675.675 0 0 1-.932-.235 8.511 8.511 0 0 0-2.761-2.876 9.392 9.392 0 0 0-3.845-1.334.674.674 0 0 1-.588-.76c.238-1.793 1.243-4.078 3.141-7.05 5.518-8.692 14.295-17.459 17.098-15.668 2.798 1.787-1.442 13.404-6.992 22.093Z" fill="#825331"/><path d="M127.281 50.23a.669.669 0 0 1-.23.098l-.296.064c-3.971 1.027-7.805-.141-10.589-2.614-1.104-.98-1.911-2.082-2.204-2.996-.388-1.212.203-2.166 1.498-2.014 2.039.233 3.391-.193 4.238-.973.242-.224.263-.252.477-.593 1.892-2.807 5.741-3.656 8.643-1.902 2.921 1.796 3.759 5.59 1.854 8.419a6.254 6.254 0 0 1-3.391 2.51Z" fill="#E4B681"/><mask id="a" style="mask-type:alpha" maskUnits="userSpaceOnUse" x="113" y="38" width="19" height="13"><path d="M127.281 50.23a.669.669 0 0 1-.23.098l-.296.064c-3.971 1.027-7.805-.141-10.589-2.614-1.104-.98-1.911-2.082-2.204-2.996-.388-1.212.203-2.166 1.498-2.014 2.039.233 3.391-.193 4.238-.973.242-.224.263-.252.477-.593 1.892-2.807 5.741-3.656 8.643-1.902 2.921 1.796 3.759 5.59 1.854 8.419a6.254 6.254 0 0 1-3.391 2.51Z" fill="#E4B681"/></mask><g mask="url(#a)"><path d="M124 41.5c.4-2.4-2.833-2-4.5-1.5-2.833.334-8.7 2.1-9.5 6.5-1 5.5 15 6 18.5 5s1-4.5-2-4.5-3-2.5-2.5-5.5Z" fill="#5CB1D6"/></g><path d="M106.089 50.197c6.045 2.221-10.353 9.187-17.64 8.098-5.288-.79-7.343-4.372-7.342-6.748 0-2.97 10.394-5.36 10.992-1.9.599 3.46 7.945-1.671 13.99.55ZM80.728 38.767c.744-.003 1.395.197 1.846.495.455.3.659.663.66.996.001.333-.2.697-.653 1-.448.302-1.098.506-1.842.51-.743.002-1.394-.197-1.846-.496-.454-.3-.658-.662-.66-.995 0-.334.2-.697.653-1.001.45-.302 1.099-.506 1.842-.509ZM83.967 65.533c7.582 1.726-16.067 15.524-25.585 15.704-6.906.13-8.814-4.479-8.249-7.859.706-4.225 13.328-.305 15.197-5.31 2.975-7.965 11.055-4.262 18.637-2.535Z" fill="#5CB1D6" stroke="#4C97FF"/><rect x="45" y="10" width="5" height="5" rx="2.5" fill="#4C97FF"/><rect x="44.5" y="9.5" width="6" height="6" rx="3" stroke="#000" stroke-opacity=".1"/><rect x="130" y="10" width="5" height="5" rx="2.5" fill="#4C97FF"/><rect x="129.5" y="9.5" width="6" height="6" rx="3" stroke="#000" stroke-opacity=".1"/><rect x="130" y="83" width="5" height="5" rx="2.5" fill="#4C97FF"/><rect x="129.5" y="82.5" width="6" height="6" rx="3" stroke="#000" stroke-opacity=".1"/><path fill-rule="evenodd" clip-rule="evenodd" d="m99.134 84.247-6.635 22.577a2.876 2.876 0 0 1-3.598 1.964l-29.857-8.774a2.977 2.977 0 0 0-2.204.241l-5.08 2.773a2.982 2.982 0 0 1-2.204.241l-14.56-4.279a2.978 2.978 0 0 1-1.723-1.395l-2.773-5.08a2.977 2.977 0 0 0-1.722-1.395l-7.362-2.163a2.875 2.875 0 0 1-1.964-3.599l6.634-22.577a2.875 2.875 0 0 1 3.599-1.964l7.28 2.14c.736.216 1.376.76 1.723 1.395l2.83 5.186c.428.659.987 1.178 1.723 1.395L57.8 75.21a2.977 2.977 0 0 0 2.204-.24l5.186-2.831c.717-.323 1.467-.458 2.203-.241l29.776 8.75a2.875 2.875 0 0 1 1.964 3.598Z" fill="#CF63CF"/><path fill-rule="evenodd" clip-rule="evenodd" d="m97.639 98.766-3.041 3.372c-.609.679-1.74.252-1.74-.658V86.19c0-.86 1.033-1.31 1.672-.726l11.289 10.306c.669.61.234 1.715-.677 1.715h-4.586l1.815 4.045a1.615 1.615 0 0 1-.792 2.127c-.8.365-1.743.008-2.104-.801l-1.836-4.09Z" fill="#575E75"/><path d="m97.639 98.766.353-.159-.243-.542-.398.441.288.26Zm-3.041 3.372-.288-.259v.001l.288.258Zm-.068-16.674-.261.286.261-.286Zm11.289 10.306-.261.286.261-.286Zm-5.263 1.715v-.387h-.598l.245.546.353-.159Zm1.815 4.045.354-.158-.354.158Zm-.792 2.127.161.352h.001l-.162-.352Zm-2.104-.801.354-.158-.354.158Zm-2.124-4.35-3.04 3.373.575.519 3.04-3.373-.575-.519Zm-3.042 3.374c-.375.418-1.064.148-1.064-.4h-.775c0 1.271 1.574 1.856 2.416.917l-.577-.517Zm-1.064-.4V86.19h-.775v15.29h.775Zm0-15.29c0-.517.628-.801 1.024-.44l.522-.572c-.882-.806-2.321-.193-2.321 1.012h.775Zm1.024-.44 11.289 10.306.522-.572-11.289-10.306-.522.572Zm11.289 10.306a.6.6 0 0 1-.416 1.042v.775c1.256 0 1.875-1.536.938-2.39l-.522.573Zm-.416 1.042h-4.586v.775h4.586v-.775Zm-4.939.546 1.814 4.045.708-.317-1.815-4.046-.707.318Zm1.814 4.045a1.227 1.227 0 0 1-.6 1.616l.324.704a2.003 2.003 0 0 0 .984-2.637l-.708.317Zm-.599 1.615a1.195 1.195 0 0 1-1.59-.606l-.707.316a1.97 1.97 0 0 0 2.619.995l-.322-.705Zm-1.59-.606-1.836-4.091-.707.317 1.836 4.091.707-.317Z" fill="#fff"/></svg>
